X:135
T:Waltz of The Apple Blossoms
R:waltz
C:Bruce Osborne - July 2002
Z:bosborne@kos.net
M:3/4
L:1/8
K:Bb
fg|f2 d2 dB|F2 F2 DC|B,D FD BF|d4 cB|
AF Ac fc|a3 f cA|BA Bd gd|f4 fg|
f2 d2 dB|F2 F2 DC|B,D FD BF|d4 cB|
AF Ac cB|A3 F EF|AF Ac eA|B4:|
|:DC|B,2 B,2 DF|B2 B2 FB|dB df gd|f3 d cB|
AF Ac ac|f3 c Ac|BA Bd gd|f4 DC|
B,2 B,2 DF|B2 B2 FB|dB df gd|f3 d cB|
AF Ac ec|A3 F EF|AF Ac cA|B4:|
